X: 1
T: Sk\aallm\aansarn
C: H.Nordin (1974)
R: shottish
Z: John Chambers <jc@trillian.mit.edu>
M: 4/4
L: 1/8
K: D
|: "D"D2 FA d2 FA | A->B AF "A7"G2 E2 | E2 Ac e->c Ac |1,3 "D"d2 fd "A7"A->G FE :|2,4 e2 d2 "D"d4 :|
|: "D"f>a af ef df | cf Bf A2 A2 |1,3 "A7"A>g ec A2- A2 | "D"A>d AF D2 D2 :|2,4 "A7"A>g ec Ac ec | "D"d2 d2 d4 :|
|: "D"D>F AF B2 AA | d2 AA B2 A2 |1,3 "A7"G-A e-A G-A e-A | "D"D-A f-A D-A f-A :|2,4 "A7"A>G EC A,C EC | E2D2 "D"D4 :|
